public/icons/markets/cube-icon.svg

<svg width="24" height="24" viewBox="0 0 24 24" fill="none" xmlns="http://www.w3.org/2000/svg"><path d="m20 7-8-4-8 4m16 0-8 4m8-4v10l-8 4M4 7l8 4M4 7v10l8 4m0-10v10" stroke="#A5A8B6" stroke-width="2" stroke-linecap="round" stroke-linejoin="round"/></svg>

<svg width="24" height="24" viewBox="0 0 24 24" fill="none" xmlns="http://www.w3.org/2000/svg">
<path d="M20 7L12 3L4 7M20 7L12 11M20 7V17L12 21M4 7L12 11M4 7V17L12 21M12 11V21" stroke="#A5A8B6" stroke-width="2" stroke-linecap="round" stroke-linejoin="round"/>
</svg>
